templates/flag_icons/sk.svg

<?xml version="1.0" encoding="UTF-8" standalone="no"?>
<svg width="23px" height="17px" viewBox="0 0 23 17" version="1.1" xmlns="http://www.w3.org/2000/svg" xmlns:xlink="http://www.w3.org/1999/xlink">
    <!-- Generator: Sketch 3.7.2 (28276) - http://www.bohemiancoding.com/sketch -->
    <title>SK</title>
    <desc>Created with Sketch.</desc>
    <defs>
        <linearGradient x1="50%" y1="0%" x2="50%" y2="100%" id="linearGradient-1">
            <stop stop-color="#FFFFFF" offset="0%"></stop>
            <stop stop-color="#F0F0F0" offset="100%"></stop>
        </linearGradient>
        <rect id="path-2" x="0" y="0" width="21" height="15" rx="1.5"></rect>
        <filter x="-50%" y="-50%" width="200%" height="200%" filterUnits="objectBoundingBox" id="filter-4">
            <feOffset dx="0" dy="0.5" in="SourceAlpha" result="shadowOffsetOuter1"></feOffset>
            <feGaussianBlur stdDeviation="0.5" in="shadowOffsetOuter1" result="shadowBlurOuter1"></feGaussianBlur>
            <feColorMatrix values="0 0 0 0 0   0 0 0 0 0   0 0 0 0 0  0 0 0 0.16 0" type="matrix" in="shadowBlurOuter1"></feColorMatrix>
        </filter>
        <linearGradient x1="50%" y1="0%" x2="50%" y2="100%" id="linearGradient-5">
            <stop stop-color="#0C47B7" offset="0%"></stop>
            <stop stop-color="#073DA4" offset="100%"></stop>
        </linearGradient>
        <rect id="path-6" x="0" y="5" width="21" height="5"></rect>
        <filter x="-50%" y="-50%" width="200%" height="200%" filterUnits="objectBoundingBox" id="filter-7">
            <feMorphology radius="0.25" operator="dilate" in="SourceAlpha" result="shadowSpreadOuter1"></feMorphology>
            <feOffset dx="0" dy="0" in="shadowSpreadOuter1" result="shadowOffsetOuter1"></feOffset>
            <feColorMatrix values="0 0 0 0 0   0 0 0 0 0   0 0 0 0 0  0 0 0 0.06 0" type="matrix" in="shadowOffsetOuter1"></feColorMatrix>
        </filter>
        <linearGradient x1="50%" y1="0%" x2="50%" y2="100%" id="linearGradient-8">
            <stop stop-color="#E53B35" offset="0%"></stop>
            <stop stop-color="#D32E28" offset="100%"></stop>
        </linearGradient>
        <rect id="path-9" x="0" y="10" width="21" height="5"></rect>
        <filter x="-50%" y="-50%" width="200%" height="200%" filterUnits="objectBoundingBox" id="filter-10">
            <feMorphology radius="0.25" operator="dilate" in="SourceAlpha" result="shadowSpreadOuter1"></feMorphology>
            <feOffset dx="0" dy="0" in="shadowSpreadOuter1" result="shadowOffsetOuter1"></feOffset>
            <feColorMatrix values="0 0 0 0 0   0 0 0 0 0   0 0 0 0 0  0 0 0 0.06 0" type="matrix" in="shadowOffsetOuter1"></feColorMatrix>
        </filter>
        <rect id="path-11" x="0" y="0" width="21" height="5"></rect>
        <filter x="-50%" y="-50%" width="200%" height="200%" filterUnits="objectBoundingBox" id="filter-12">
            <feMorphology radius="0.25" operator="dilate" in="SourceAlpha" result="shadowSpreadOuter1"></feMorphology>
            <feOffset dx="0" dy="0" in="shadowSpreadOuter1" result="shadowOffsetOuter1"></feOffset>
            <feColorMatrix values="0 0 0 0 0   0 0 0 0 0   0 0 0 0 0  0 0 0 0.06 0" type="matrix" in="shadowOffsetOuter1"></feColorMatrix>
        </filter>
        <linearGradient x1="50%" y1="0%" x2="50%" y2="100%" id="linearGradient-13">
            <stop stop-color="#F73744" offset="0%"></stop>
            <stop stop-color="#EC212F" offset="100%"></stop>
        </linearGradient>
        <linearGradient x1="50%" y1="0%" x2="50%" y2="100%" id="linearGradient-14">
            <stop stop-color="#FFFFFF" offset="0%"></stop>
            <stop stop-color="#F0F0F0" offset="100%"></stop>
        </linearGradient>
        <path d="M0.711485382,1.00138006 C0.732756418,0.448333126 1.19677132,0 1.75138006,0 L6.24861994,0 C6.80166687,0 7.26718351,0.446771324 7.28851462,1.00138006 L7.46148538,5.49861994 C7.48275642,6.05166687 7.16440529,6.78765261 6.74055213,7.15095532 L5.1460309,8.5176878 C4.51309551,9.06020385 3.48356295,9.05733967 2.8539691,8.5176878 L1.25944787,7.15095532 C0.840016394,6.79144262 0.517183512,6.05322868 0.538514618,5.49861994 L0.711485382,1.00138006 Z" id="path-15"></path>
        <filter x="-50%" y="-50%" width="200%" height="200%" filterUnits="objectBoundingBox" id="filter-17">
            <feMorphology radius="1" operator="dilate" in="SourceAlpha" result="shadowSpreadOuter1"></feMorphology>
            <feOffset dx="0" dy="1" in="shadowSpreadOuter1" result="shadowOffsetOuter1"></feOffset>
            <feComposite in="shadowOffsetOuter1" in2="SourceAlpha" operator="out" result="shadowOffsetOuter1"></feComposite>
            <feColorMatrix values="0 0 0 0 0   0 0 0 0 0   0 0 0 0 0  0 0 0 0.06 0" type="matrix" in="shadowOffsetOuter1"></feColorMatrix>
        </filter>
        <mask id="mask-18" maskContentUnits="userSpaceOnUse" maskUnits="objectBoundingBox" x="-1" y="-1" width="8.92497631" height="10.9235015">
            <rect x="-0.462484444" y="-1" width="8.92497631" height="10.9235015" fill="white"></rect>
            <use xlink:href="#path-15" fill="black"></use>
        </mask>
        <path d="M3.5,5.24523926 C3.5,5.10979736 3.38229752,5 3.25230551,5 L2.24769449,5 C2.1108966,5 2,4.89298248 2,4.74765778 L2,4.25234222 C2,4.11297746 2.11770248,4 2.24769449,4 L3.25230551,4 C3.3891034,4 3.5,3.89298248 3.5,3.74765778 L3.5,3.25234222 C3.5,3.11297746 3.39298248,3 3.24765778,3 L2.75234222,3 C2.61297746,3 2.5,2.89298248 2.5,2.74765778 L2.5,2.25234222 C2.5,2.11297746 2.60701752,2 2.75234222,2 L3.24765778,2 C3.38702254,2 3.5,1.89298248 3.5,1.74765778 L3.5,1.25234222 C3.5,1.11297746 3.60701752,1 3.75234222,1 L4.24765778,1 C4.38702254,1 4.5,1.10701752 4.5,1.25234222 L4.5,1.74765778 C4.5,1.88702254 4.60701752,2 4.75234222,2 L5.24765778,2 C5.38702254,2 5.5,2.10701752 5.5,2.25234222 L5.5,2.74765778 C5.5,2.88702254 5.39298248,3 5.24765778,3 L4.75234222,3 C4.61297746,3 4.5,3.10701752 4.5,3.25234222 L4.5,3.74765778 C4.5,3.88702254 4.61770248,4 4.74769449,4 L5.75230551,4 C5.8891034,4 6,4.10701752 6,4.25234222 L6,4.74765778 C6,4.88702254 5.88229752,5 5.75230551,5 L4.74769449,5 C4.6108966,5 4.5,5.10752869 4.5,5.24523926 L4.5,6.75476074 C4.5,6.89020264 4.39298248,7 4.24765778,7 L3.75234222,7 C3.61297746,7 3.5,6.89247131 3.5,6.75476074 L3.5,5.24523926 Z" id="path-19"></path>
        <filter x="-50%" y="-50%" width="200%" height="200%" filterUnits="objectBoundingBox" id="filter-20">
            <feOffset dx="0" dy="0.5" in="SourceAlpha" result="shadowOffsetOuter1"></feOffset>
            <feColorMatrix values="0 0 0 0 0   0 0 0 0 0   0 0 0 0 0  0 0 0 0.06 0" type="matrix" in="shadowOffsetOuter1"></feColorMatrix>
        </filter>
    </defs>
    <g id="Flag-Kit" stroke="none" stroke-width="1" fill="none" fill-rule="evenodd">
        <g id="SK">
            <g id="AE-Copy-6" transform="translate(1.000000, 1.000000)">
                <mask id="mask-3" fill="white">
                    <use xlink:href="#path-2"></use>
                </mask>
                <g id="Mask">
                    <use fill="black" fill-opacity="1" filter="url(#filter-4)" xlink:href="#path-2"></use>
                    <use fill="url(#linearGradient-1)" fill-rule="evenodd" xlink:href="#path-2"></use>
                </g>
                <g id="Rectangle-2" mask="url(#mask-3)">
                    <use fill="black" fill-opacity="1" filter="url(#filter-7)" xlink:href="#path-6"></use>
                    <use fill="url(#linearGradient-5)" fill-rule="evenodd" xlink:href="#path-6"></use>
                </g>
                <g id="Rectangle-2" mask="url(#mask-3)">
                    <use fill="black" fill-opacity="1" filter="url(#filter-10)" xlink:href="#path-9"></use>
                    <use fill="url(#linearGradient-8)" fill-rule="evenodd" xlink:href="#path-9"></use>
                </g>
                <g id="Rectangle-2" mask="url(#mask-3)">
                    <use fill="black" fill-opacity="1" filter="url(#filter-12)" xlink:href="#path-11"></use>
                    <use fill="url(#linearGradient-1)" fill-rule="evenodd" xlink:href="#path-11"></use>
                </g>
                <g id="Rectangle-1693" mask="url(#mask-3)">
                    <g transform="translate(3.500000, 3.000000)">
                        <mask id="mask-16" fill="white">
                            <use xlink:href="#path-15"></use>
                        </mask>
                        <g id="Mask" stroke="none" fill="none">
                            <use fill="black" fill-opacity="1" filter="url(#filter-17)" xlink:href="#path-15"></use>
                            <use fill="url(#linearGradient-13)" fill-rule="evenodd" xlink:href="#path-15"></use>
                            <use stroke="url(#linearGradient-14)" mask="url(#mask-18)" stroke-width="2" xlink:href="#path-15"></use>
                        </g>
                        <g id="Rectangle-1694" stroke="none" fill="none" mask="url(#mask-16)">
                            <use fill="black" fill-opacity="1" filter="url(#filter-20)" xlink:href="#path-19"></use>
                            <use fill="url(#linearGradient-1)" fill-rule="evenodd" xlink:href="#path-19"></use>
                        </g>
                        <path d="M4.90265104,7.06908734 C6.11841386,7.26063567 7,7.82884147 7,8.5 C7,9.32842712 5.65685425,10 4,10 C2.34314575,10 1,9.32842712 1,8.5 C1,7.82884147 1.88158614,7.26063567 3.09734896,7.06908734 C3.25832019,6.73250033 3.60200841,6.5 4,6.5 C4.39799159,6.5 4.74167981,6.73250033 4.90265104,7.06908734 Z" id="Oval-215" stroke="none" fill="#1251A1" fill-rule="evenodd" mask="url(#mask-16)"></path>
                    </g>
                </g>
                <rect id="Depth" mask="url(#mask-3)" x="0" y="0" width="21" height="15" rx="1.5"></rect>
            </g>
        </g>
    </g>
</svg>

<svg width="23" height="17" viewBox="0 0 23 17" xmlns="http://www.w3.org/2000/svg" xmlns:xlink="http://www.w3.org/1999/xlink"><title>SK</title><defs><linearGradient x1="50%" y1="0%" x2="50%" y2="100%" id="d"><stop stop-color="#FFF" offset="0%"/><stop stop-color="#F0F0F0" offset="100%"/></linearGradient><rect id="b" width="21" height="15" rx="1.5"/><filter x="-50%" y="-50%" width="200%" height="200%" filterUnits="objectBoundingBox" id="c"><feOffset dy=".5" in="SourceAlpha" result="shadowOffsetOuter1"/><feGaussianBlur stdDeviation=".5" in="shadowOffsetOuter1" result="shadowBlurOuter1"/><feColorMatrix values="0 0 0 0 0 0 0 0 0 0 0 0 0 0 0 0 0 0 0.16 0" in="shadowBlurOuter1"/></filter><linearGradient x1="50%" y1="0%" x2="50%" y2="100%" id="h"><stop stop-color="#0C47B7" offset="0%"/><stop stop-color="#073DA4" offset="100%"/></linearGradient><path id="g" d="M0 5h21v5H0z"/><filter x="-50%" y="-50%" width="200%" height="200%" filterUnits="objectBoundingBox" id="f"><feMorphology radius=".25" operator="dilate" in="SourceAlpha" result="shadowSpreadOuter1"/><feOffset in="shadowSpreadOuter1" result="shadowOffsetOuter1"/><feColorMatrix values="0 0 0 0 0 0 0 0 0 0 0 0 0 0 0 0 0 0 0.06 0" in="shadowOffsetOuter1"/></filter><linearGradient x1="50%" y1="0%" x2="50%" y2="100%" id="k"><stop stop-color="#E53B35" offset="0%"/><stop stop-color="#D32E28" offset="100%"/></linearGradient><path id="j" d="M0 10h21v5H0z"/><filter x="-50%" y="-50%" width="200%" height="200%" filterUnits="objectBoundingBox" id="i"><feMorphology radius=".25" operator="dilate" in="SourceAlpha" result="shadowSpreadOuter1"/><feOffset in="shadowSpreadOuter1" result="shadowOffsetOuter1"/><feColorMatrix values="0 0 0 0 0 0 0 0 0 0 0 0 0 0 0 0 0 0 0.06 0" in="shadowOffsetOuter1"/></filter><path id="m" d="M0 0h21v5H0z"/><filter x="-50%" y="-50%" width="200%" height="200%" filterUnits="objectBoundingBox" id="l"><feMorphology radius=".25" operator="dilate" in="SourceAlpha" result="shadowSpreadOuter1"/><feOffset in="shadowSpreadOuter1" result="shadowOffsetOuter1"/><feColorMatrix values="0 0 0 0 0 0 0 0 0 0 0 0 0 0 0 0 0 0 0.06 0" in="shadowOffsetOuter1"/></filter><linearGradient x1="50%" y1="0%" x2="50%" y2="100%" id="o"><stop stop-color="#F73744" offset="0%"/><stop stop-color="#EC212F" offset="100%"/></linearGradient><linearGradient x1="50%" y1="0%" x2="50%" y2="100%" id="p"><stop stop-color="#FFF" offset="0%"/><stop stop-color="#F0F0F0" offset="100%"/></linearGradient><path d="M.71 1c.02-.55.49-1 1.04-1h4.5c.55 0 1.02.45 1.04 1l.17 4.5c.02.55-.3 1.29-.72 1.65l-1.6 1.37c-.63.54-1.66.54-2.29 0l-1.6-1.37a2.34 2.34 0 0 1-.7-1.65L.7 1z" id="a"/><filter x="-50%" y="-50%" width="200%" height="200%" filterUnits="objectBoundingBox" id="n"><feMorphology radius="1" operator="dilate" in="SourceAlpha" result="shadowSpreadOuter1"/><feOffset dy="1" in="shadowSpreadOuter1" result="shadowOffsetOuter1"/><feComposite in="shadowOffsetOuter1" in2="SourceAlpha" operator="out" result="shadowOffsetOuter1"/><feColorMatrix values="0 0 0 0 0 0 0 0 0 0 0 0 0 0 0 0 0 0 0.06 0" in="shadowOffsetOuter1"/></filter><mask id="q" x="-1" y="-1" width="8.92" height="10.92"><path fill="#fff" d="M-.46-1h8.92V9.92H-.46z"/><use xlink:href="#a"/></mask><path d="M3.5 5.25A.25.25 0 0 0 3.25 5h-1A.25.25 0 0 1 2 4.75v-.5c0-.14.12-.25.25-.25h1c.14 0 .25-.1.25-.25v-.5c0-.14-.1-.25-.25-.25h-.5a.25.25 0 0 1-.25-.25v-.5c0-.14.1-.25.25-.25h.5c.14 0 .25-.1.25-.25v-.5c0-.14.1-.25.25-.25h.5c.14 0 .25.1.25.25v.5c0 .14.1.25.25.25h.5c.14 0 .25.1.25.25v.5c0 .14-.1.25-.25.25h-.5c-.14 0-.25.1-.25.25v.5c0 .14.12.25.25.25h1c.14 0 .25.1.25.25v.5c0 .14-.12.25-.25.25h-1c-.14 0-.25.1-.25.25v1.5c0 .14-.1.25-.25.25h-.5a.25.25 0 0 1-.25-.25v-1.5z" id="t"/><filter x="-50%" y="-50%" width="200%" height="200%" filterUnits="objectBoundingBox" id="s"><feOffset dy=".5" in="SourceAlpha" result="shadowOffsetOuter1"/><feColorMatrix values="0 0 0 0 0 0 0 0 0 0 0 0 0 0 0 0 0 0 0.06 0" in="shadowOffsetOuter1"/></filter></defs><g transform="translate(1 1)" fill="none" fill-rule="evenodd"><mask id="e" fill="#fff"><use xlink:href="#b"/></mask><use fill="#000" filter="url(#c)" xlink:href="#b"/><use fill="url(#d)" xlink:href="#b"/><g mask="url(#e)"><use fill="#000" filter="url(#f)" xlink:href="#g"/><use fill="url(#h)" xlink:href="#g"/></g><g mask="url(#e)"><use fill="#000" filter="url(#i)" xlink:href="#j"/><use fill="url(#k)" xlink:href="#j"/></g><g mask="url(#e)"><use fill="#000" filter="url(#l)" xlink:href="#m"/><use fill="url(#d)" xlink:href="#m"/></g><g mask="url(#e)"><g transform="translate(3.5 3)"><mask id="r" fill="#fff"><use xlink:href="#a"/></mask><use fill="#000" filter="url(#n)" xlink:href="#a"/><use fill="url(#o)" xlink:href="#a"/><use stroke="url(#p)" mask="url(#q)" stroke-width="2" xlink:href="#a"/><g mask="url(#r)"><use fill="#000" filter="url(#s)" xlink:href="#t"/><use fill="url(#d)" xlink:href="#t"/></g><path d="M4.9 7.07c1.22.2 2.1.76 2.1 1.43C7 9.33 5.66 10 4 10s-3-.67-3-1.5c0-.67.88-1.24 2.1-1.43a1 1 0 0 1 1.8 0z" fill="#1251A1" mask="url(#r)"/></g></g><rect mask="url(#e)" width="21" height="15" rx="1.5"/></g></svg>
